src/assets/imgs/icons/wallet/ic_help.svg

<?xml version="1.0" encoding="UTF-8"?>
<svg width="20px" height="20px" viewBox="0 0 20 20" version="1.1" xmlns="http://www.w3.org/2000/svg" xmlns:xlink="http://www.w3.org/1999/xlink">
    <!-- Generator: Sketch 50.2 (55047) - http://www.bohemiancoding.com/sketch -->
    <title>ic_help</title>
    <desc>Created with Sketch.</desc>
    <defs></defs>
    <g id="Page-1" stroke="none" stroke-width="1" fill="none" fill-rule="evenodd">
        <g id="00A_Export" transform="translate(-359.000000, -65.000000)">
            <g id="ic_help" transform="translate(359.000000, 65.000000)">
                <rect id="Gudie" fill-opacity="0" fill="#D8D8D8" x="0" y="0" width="20" height="20"></rect>
                <g id="Shape" fill="#696B8A">
                    <path d="M10,0 C12.6521649,0 15.195704,1.0535684 17.0710678,2.92893219 C18.9464316,4.80429597 20,7.34783509 20,10 C20,15.5228475 15.5228475,20 10,20 C4.4771525,20 0,15.5228475 0,10 C0,4.4771525 4.4771525,0 10,0 Z M10,1 C5.02943725,1 1,5.02943725 1,10 C1,14.9705627 5.02943725,19 10,19 C14.9705627,19 19,14.9705627 19,10 C19,7.61305158 18.0517885,5.32386638 16.363961,3.63603897 C14.6761336,1.94821156 12.3869484,1 10,1 Z" id="Combined-Shape" fill-rule="nonzero"></path>
                    <path d="M10.0002426,13.5 C9.72424261,13.5 9.50024261,13.2770277 9.50024261,13.002294 L9.50024261,11.0114702 C9.50024261,10.7974566 9.63824261,10.607333 9.84224261,10.5396449 C10.5812426,10.2917874 12.5002426,9.35809099 12.5002426,8.02523442 C12.5022426,6.83173552 11.5542426,5.735787 10.3432426,5.52973673 C9.12724261,5.32269105 7.87524261,6.05531422 7.47224261,7.19506088 C7.38024261,7.45386798 7.09624261,7.59123482 6.83424261,7.49965693 C6.57324261,7.40807903 6.43724261,7.12438663 6.52824261,6.86458412 C7.08824261,5.27988834 8.84224261,4.26158194 10.5112426,4.54826057 C12.2182426,4.83892085 13.5022426,6.33402956 13.5002426,8.02523442 C13.5002426,9.92547578 11.3552426,11.0005207 10.5002426,11.3538919 L10.5002426,13.002294 C10.5002426,13.2770277 10.2762426,13.5 10.0002426,13.5" id="Fill-1"></path>
                    <circle id="Oval-4" cx="10" cy="15.75" r="1"></circle>
                </g>
                <rect id="Overlay" x="0" y="0" width="20" height="20"></rect>
            </g>
        </g>
    </g>
</svg>

<?xml version="1.0" encoding="utf-8"?>
<!-- Generator: Adobe Illustrator 23.0.1, SVG Export Plug-In . SVG Version: 6.00 Build 0)  -->
<svg version="1.1" id="图层_1" xmlns="http://www.w3.org/2000/svg" xmlns:xlink="http://www.w3.org/1999/xlink" x="0px" y="0px"
	 viewBox="0 0 20 20" style="enable-background:new 0 0 20 20;" xml:space="preserve">
<style type="text/css">
	.st0{fill-rule:evenodd;clip-rule:evenodd;fill:#D8D8D8;fill-opacity:0;}
	.st1{fill:#AEAEAE;}
	.st2{fill-rule:evenodd;clip-rule:evenodd;fill:#AEAEAE;}
	.st3{fill:none;}
</style>
<title>ic_help</title>
<desc>Created with Sketch.</desc>
<rect id="Gudie" y="0" class="st0" width="20" height="20"/>
<g id="Shape">
	<path id="Combined-Shape" class="st1" d="M10,0c2.7,0,5.2,1.1,7.1,2.9S20,7.3,20,10c0,5.5-4.5,10-10,10S0,15.5,0,10S4.5,0,10,0z
		 M10,1c-5,0-9,4-9,9s4,9,9,9s9-4,9-9c0-2.4-0.9-4.7-2.6-6.4S12.4,1,10,1z"/>
	<path id="Fill-1" class="st2" d="M10,13.5c-0.3,0-0.5-0.2-0.5-0.5v-2c0-0.2,0.1-0.4,0.3-0.5c0.7-0.2,2.7-1.2,2.7-2.5
		c0-1.2-0.9-2.3-2.2-2.5C9.1,5.3,7.9,6.1,7.5,7.2C7.4,7.5,7.1,7.6,6.8,7.5C6.6,7.4,6.4,7.1,6.5,6.9c0.6-1.6,2.3-2.6,4-2.3
		c1.7,0.3,3,1.8,3,3.5c0,1.9-2.1,3-3,3.3V13C10.5,13.3,10.3,13.5,10,13.5"/>
	<circle id="Oval-4" class="st2" cx="10" cy="15.7" r="1"/>
</g>
<rect id="Overlay" y="0" class="st3" width="20" height="20"/>
</svg>
